;FLAVOR:Marlin
;TIME:1450.12
;Filament used:1.84055m
;Material Diameter:1.75
;Material Density:1.24
;Filament Cost:0.109791
;Filament Weight:5.489534
;Filament Length:1.840551
;Layer height:0.2
;MINX:2.33
;MINY:2.192
;MINZ:0.2
;MAXX:136.558
;MAXY:136.558
;MAXZ:20.401
;OuterWall Time:280.349
;InnerWall Time:149.527
;Skin Time:312.646
;Support Time:135.246
;SkirtBrim Time:78.2358
;Infill Time:97.4981
;Support Infills Time:0
;Combing Time:98.9064
;Retraction Time:256.065
;PrimeTower Time:41.6515
;;;;;;;;;;;;;;;;;;;;;;;;;;;;;;;;;;;;;;;;;;;;;;;;;;;;;;;;;;;;
;Creality Print GCode Generated by CXEngine
;CRSLICE_GIT_HASH:58ee74d
;Creality Print Version : V4.3.8.6984
;CXEngine Release Time:2023-12-04 18:16:29
;Gcode Generated Time:2024-02-25 09:20:34
;----------Machine Config--------------
;Machine Name:Ender-3 V3 SE
;Machine Height:250
;Machine Width:220
;Machine Depth:220
;Material Type:PLA
;Material Name:CR-PLA_1.75
;Number of Extruders:1
;ExtruderParams[0] Nozzle Diameter:1000
;----------Profile Config---------------
;Wall Thickness:0.8
;Top/Bottom Thickness:0.8
;Out Wall Line Width:0.42
;Inner Wall Line Width:0.45
;Inital Height:200
;Wall Line Count:2
;Infill Line Distance:8
;Infill Pattern:grid
;Infill Sparse Density:10
;Infill Wipe Distance:0
;Print Temperature:190
;Bed Temperature:60
;Support Enable:false
;Support Density:15
;Support Angle:60
;Adhesion Type:autobrim
;machine is belt:false
;machine belt offset:10
;machine belt offset Y:0
;Raft Base Line Spacing:1.6
;Wait Heatup Sync:true
;Enable Ironing:false
;Material Type:PLA
;Max volumetric speed:20
;Preview Img Type:png
;Screen Size:Sermoon D3
;----------Shell Config----------------
;Outer Wall Wipe Distance:2000
;Outer Inset First:false
;Infill Before Walls:false
;Infill Overlap:0.09
;Fill Gaps Between Walls:everywhere
;Minimum Infill Area:30
;Top Surface Skin Layer:0
;Top Layers:4
;Z Seam Alignment:sharpest_corner
;Seam Corner Preference:z_seam_corner_inner
;Z Seam X:110
;Z Seam Y:220
;Horizontal Expansion:0
;Top/Bottom Pattern:zigzag
;Ironing Pattern:zigzag
;Vase Model:false
;----------Support Config----------------
;Support Type:everywhere
;Support Pattern:zigzag
;Support Infill Layer Thickness:0.2
;Minimum Support Area:1
;Enable Support Roof:true
;Support Roof Thickness:0.8
;Support Roof Pattern:lines
;Connect Support Lines:0
;Connect Support ZigZags:1
;Minimum Support X/Y Distance:0.2
;Support Line Distance:2.67
; ---------PrintSpeed & Travel----------
;Enable Print Cool:true
;Avoid Printed Parts Traveling:true
;Enable Retraction:true
;Retraction Distance:1.2
;Retraction Speed:30
;Retraction Prime Speed:30
;Maximum Retraction Count:100
;Minimum Extrusion Distance Window:0.8
;Z Hop When Retracted:true
;Z Hop Height:0.4
;Retract Before Outer Wall:true

;Outer Wall Speed:60
;Inner Wall Speed:90
;Infill Speed:180
;Top/Bottom Speed:50
;Travel Speed:150
;Initial Layer Speed:30
;Skirt/Brim Speed:25
;Prime Tower Speed:60
;Outer Wall Acceleration:1000
;Inner Wall Acceleration:2000
;Infill Acceleration:2500
;Top/Bottom Acceleration:2500
;Travel Acceleration:2500
;Initial Layer Print Acceleration:500
;Initial Layer Travel Acceleration:500
;Skirt/Brim Acceleration:500
;Combing Mode:off
; --------SpecialModel&Mesh Fixes--------
;Union Overlapping Volum:true
;Remove All Holes:false
;Maximum Travel Resolution:0.25
;Maximum Deviation:0.05
;Maximum Model Angle:0.872665
;IS Mold Print:false
;Make Overhang Printable:false
;Enable Coasting:false
;Coasting Volumes:0.064
;Coasting Speed:0.9
;Raft AirGap:0.25
;Layer0 ZOverLap:0.13
;Adaptive Layers:0
;---------------------End of Head--------------------------
M140 S60
M105
M190 S60
M104 S190
M82 ;absolute extrusion mode
M220 S100 ;Reset Feedrate
M221 S100 ;Reset Flowrate

G28 ;Home

G92 E0 ;Reset Extruder
G1 Z2.0 F3000 ;Move Z Axis up
G1 X-2.1 Y20 Z0.28 F5000.0 ;Move to start position
M109 S190.000000
G1 X-2.1 Y145.0 Z0.28 F1500.0 E15 ;Draw the first line
G1 X-2.4 Y145.0 Z0.28 F5000.0 ;Move to side a little
G1 X-2.4 Y20 Z0.28 F1500.0 E30 ;Draw the second line
G92 E0  ;Reset Extruder
G1 E-1.0000 F1800 ;Retract a bit
G1 Z2.0 F3000 ;Move Z Axis up
G1 E0.0000 F1800 

G92 E0
G92 E0
G1 F1800 E-1.2
;LAYER_COUNT:50

;LAYER:0
M106 S0
M204 S500
;;retract;;
G1 F1800 E0
G1 F1800 E-1.2
G0 F4800 X2.33 Y2.192 Z20.401
G0 X100.447 Y94.479 Z0.6
;TYPE:SKIRT
G1 F600 Z0.2
G1 F1800 E0
G1 F1500 X102.975 Y94.479 E0.09711
G1 X103.271 Y94.775 E0.1132
G1 X103.271 Y99.138 E0.2808
G1 X116.729 Y99.138 E0.7978
G1 X116.729 Y94.775 E0.9654
G1 X117.025 Y94.479 E0.98148
G1 X119.55 Y94.479 E1.07848
G1 X119.126 Y94.223 E1.09751
G1 X118.579 Y93.918 E1.12157
G1 X118.11 Y93.677 E1.14183
G1 X117.419 Y93.351 E1.17118
G1 X117.074 Y93.202 E1.18561
G1 X116.473 Y92.962 E1.21047
G1 X115.996 Y92.787 E1.22999
G1 X115.279 Y92.555 E1.25894
G1 X114.543 Y92.349 E1.2883
G1 X113.777 Y92.167 E1.31855
G1 X113.214 Y92.058 E1.34058
G1 X112.46 Y91.94 E1.3699
G1 X111.919 Y91.874 E1.39083
G1 X111.315 Y91.821 E1.41412
G1 X110.936 Y91.797 E1.42871
G1 X110.396 Y91.777 E1.44947
G1 X109.607 Y91.777 E1.47978
G1 X109.033 Y91.799 E1.50185
G1 X108.273 Y91.855 E1.53112
G1 X107.881 Y91.896 E1.54626
G1 X107.332 Y91.969 E1.56754
G1 X106.964 Y92.027 E1.58185
G1 X106.212 Y92.171 E1.61126
G1 X105.664 Y92.297 E1.63287
G1 X105.089 Y92.448 E1.6557
G1 X104.514 Y92.619 E1.67875
G1 X103.816 Y92.854 E1.70704
G1 X103.317 Y93.043 E1.72754
G1 X102.95 Y93.193 E1.74277
G1 X102.386 Y93.44 E1.76642
G1 X101.712 Y93.767 E1.7952
G1 X101.219 Y94.029 E1.81665
G1 X100.88 Y94.22 E1.8316
G1 X100.447 Y94.479 E1.85098
;;retract move;;
G1 F3840 X102.447 Y94.479 E0.71098
G1 F1800 E0.65098
G0 F4800 X99.696 Y92.846 Z0.6
G0 X98.762 Y92.291
G1 F600 Z0.2
G1 F1800 E1.85098
G1 F1500 X99.513 Y91.836 E1.88471
G1 X100.283 Y91.413 E1.91846
G1 X101.07 Y91.023 E1.9522
G1 X101.873 Y90.665 E1.98598
G1 X102.688 Y90.342 E2.01965
G1 X103.519 Y90.053 E2.05345
G1 X104.361 Y89.799 E2.08724
G1 X105.211 Y89.58 E2.12096
G1 X106.07 Y89.398 E2.15469
G1 X106.936 Y89.252 E2.18843
G1 X107.807 Y89.142 E2.22215
G1 X108.683 Y89.068 E2.25592
G1 X109.121 Y89.045 E2.27277
G1 X110.001 Y89.027 E2.30659
G1 X110.88 Y89.045 E2.34036
G1 X111.317 Y89.068 E2.35717
G1 X112.193 Y89.142 E2.39094
G1 X112.629 Y89.192 E2.4078
G1 X113.499 Y89.321 E2.44159
G1 X113.93 Y89.399 E2.45841
G1 X114.79 Y89.581 E2.49218
G1 X115.642 Y89.8 E2.52598
G1 X116.482 Y90.053 E2.55968
G1 X117.311 Y90.341 E2.59339
G1 X118.128 Y90.666 E2.62717
G1 X118.931 Y91.024 E2.66094
G1 X119.718 Y91.414 E2.69468
G1 X120.486 Y91.836 E2.72835
G1 X121.239 Y92.292 E2.76217
G1 X121.971 Y92.779 E2.79594
G1 X122.681 Y93.294 E2.82964
G1 X123.028 Y93.563 E2.8465
G1 X123.706 Y94.123 E2.88028
G1 X124.357 Y94.711 E2.91398
G1 X124.54 Y94.89 E2.92382
G1 X124.769 Y94.862 E2.93268
G1 X125.05 Y94.748 E2.94433
G1 X125.292 Y94.565 E2.95598
G1 X125.477 Y94.325 E2.96762
G1 X125.594 Y94.045 E2.97928
G1 X125.634 Y93.744 E2.99095
G1 X125.634 Y85.521 E3.30684
G1 X125.597 Y85.231 E3.31807
G1 X125.483 Y84.95 E3.32972
G1 X125.3 Y84.708 E3.34137
G1 X125.06 Y84.523 E3.35301
G1 X124.78 Y84.406 E3.36467
G1 X124.479 Y84.366 E3.37634
G1 X115.523 Y84.366 E3.72038
G1 X115.089 Y84.451 E3.73737
G1 X114.907 Y84.525 E3.74492
G1 X105.093 Y84.525 E4.12193
G1 X104.911 Y84.451 E4.12948
G1 X104.477 Y84.366 E4.14647
G1 X95.521 Y84.366 E4.49052
G1 X95.231 Y84.403 E4.50175
G1 X94.95 Y84.517 E4.5134
G1 X94.708 Y84.7 E4.52505
G1 X94.523 Y84.94 E4.53669
G1 X94.406 Y85.22 E4.54835
G1 X94.366 Y85.521 E4.56001
G1 X94.366 Y93.9 E4.8819
G1 X94.485 Y94.253 E4.89621
G1 X94.654 Y94.505 E4.90786
G1 X94.882 Y94.704 E4.91949
G1 X95.155 Y94.837 E4.93116
G1 X95.451 Y94.895 E4.94274
G1 X95.642 Y94.712 E4.9529
G1 X96.295 Y94.123 E4.98669
G1 X96.972 Y93.564 E5.02041
G1 X97.32 Y93.294 E5.03733
G1 X98.031 Y92.778 E5.07108
G1 X98.762 Y92.291 E5.10483
G0 F4800 X98.711 Y92.197
G1 F1500 X99.452 Y91.747 E5.13813
G1 X100.234 Y91.318 E5.17239
G1 X101.019 Y90.929 E5.20605
G1 X101.846 Y90.56 E5.24084
G1 X102.637 Y90.247 E5.27352
G1 X103.488 Y89.951 E5.30813
G1 X104.345 Y89.693 E5.34251
G1 X105.183 Y89.477 E5.37576
G1 X106.802 Y89.134 E5.43933
G1 X106.956 Y89.141 E5.44525
G1 X107.798 Y89.036 E5.47785
G1 X108.687 Y88.961 E5.51212
G1 X109.113 Y88.938 E5.52851
G1 X110 Y88.92 E5.56259
G1 X110.888 Y88.938 E5.59671
G1 X111.314 Y88.961 E5.6131
G1 X112.214 Y89.036 E5.64779
G1 X112.63 Y89.085 E5.66389
G1 X113.527 Y89.218 E5.69872
G1 X113.93 Y89.291 E5.71445
G1 X114.819 Y89.478 E5.74935
G1 X115.656 Y89.693 E5.78255
G1 X116.521 Y89.954 E5.81726
G1 X117.756 Y90.382 E5.86747
G1 X117.855 Y90.443 E5.87194
G1 X118.182 Y90.573 E5.88546
G1 X118.984 Y90.929 E5.91916
G1 X119.765 Y91.318 E5.95268
G1 X120.527 Y91.737 E5.98609
G1 X121.299 Y92.204 E6.02075
G1 X122.034 Y92.692 E6.05464
G1 X122.754 Y93.215 E6.08883
G1 X123.104 Y93.486 E6.10583
G1 X123.763 Y94.03 E6.13866
G1 X124.11 Y94.345 E6.15666
G1 X124.389 Y94.431 E6.16788
G1 X124.624 Y94.422 E6.17691
G1 X125.018 Y94.18 E6.19468
G1 X125.172 Y93.903 E6.20685
G1 X125.172 Y85.413 E6.533
G1 X125.023 Y85.042 E6.54836
G1 X124.638 Y84.828 E6.56528
G1 X115.523 Y84.828 E6.91543
G1 X115.263 Y84.879 E6.92561
G1 X114.997 Y84.987 E6.93664
G1 X105.003 Y84.987 E7.32057
G1 X104.737 Y84.879 E7.33159
G1 X104.477 Y84.828 E7.34177
G1 X95.413 Y84.828 E7.68997
G1 X95.042 Y84.977 E7.70533
G1 X94.828 Y85.362 E7.72225
G1 X94.828 Y93.871 E8.04913
G1 X94.949 Y94.134 E8.06025
G1 X95.323 Y94.406 E8.07801
G1 X95.556 Y94.434 E8.08703
G1 X95.864 Y94.365 E8.09915
G1 X96.235 Y94.033 E8.11828
G1 X96.896 Y93.487 E8.15121
G1 X97.247 Y93.215 E8.16827
G1 X97.971 Y92.689 E8.20265
G1 X98.711 Y92.197 E8.23679
G0 F4800 X98.333 Y91.616
G1 F1500 X99.112 Y91.143 E8.2718
G1 X99.913 Y90.704 E8.30689
G1 X100.728 Y90.3 E8.34183
G1 X101.563 Y89.927 E8.37696
G1 X102.409 Y89.592 E8.41192
G1 X103.272 Y89.292 E8.44702
G1 X104.145 Y89.029 E8.48204
G1 X105.028 Y88.801 E8.51708
G1 X106.87 Y88.411 E8.58941
G1 X106.87 Y88.453 E8.59102
G1 X107.728 Y88.346 E8.62424
G1 X108.629 Y88.27 E8.65897
G1 X109.092 Y88.245 E8.67678
G1 X110 Y88.227 E8.71167
G1 X110.909 Y88.245 E8.7466
G1 X111.372 Y88.27 E8.76441
G1 X112.272 Y88.346 E8.79911
G1 X112.732 Y88.399 E8.81689
G1 X113.629 Y88.532 E8.85173
G1 X114.06 Y88.61 E8.86856
G1 X114.972 Y88.802 E8.90436
G1 X115.856 Y89.029 E8.93942
G1 X116.729 Y89.292 E8.97445
G1 X118.111 Y89.772 E9.03065
G1 X118.111 Y89.799 E9.03168
G1 X118.438 Y89.929 E9.0452
G1 X119.282 Y90.304 E9.08068
G1 X120.088 Y90.705 E9.11526
G1 X120.886 Y91.144 E9.15025
G1 X121.668 Y91.617 E9.18536
G1 X122.429 Y92.123 E9.22047
G1 X123.161 Y92.654 E9.25521
G1 X123.528 Y92.938 E9.27303
G1 X124.229 Y93.517 E9.30796
G1 X124.479 Y93.744 E9.32093
G1 X124.479 Y85.521 E9.63682
G1 X115.523 Y85.521 E9.98087
G1 X115.131 Y85.68 E9.99712
G1 X104.869 Y85.68 E10.39134
G1 X104.477 Y85.521 E10.40759
G1 X95.521 Y85.521 E10.75164
G1 X95.521 Y93.742 E11.06746
G1 X95.772 Y93.517 E11.0804
G1 X96.472 Y92.939 E11.11528
G1 X96.84 Y92.654 E11.13316
G1 X97.575 Y92.12 E11.16806
G1 X98.333 Y91.616 E11.20303
G0 F4800 X98.453 Y91.813
G1 F1500 X99.223 Y91.346 E11.23762
G1 X100.024 Y90.907 E11.27271
G1 X100.831 Y90.507 E11.30731
G1 X101.648 Y90.142 E11.34169
G1 X102.494 Y89.807 E11.37664
G1 X103.339 Y89.513 E11.41101
G1 X104.203 Y89.253 E11.44567
G1 X105.086 Y89.025 E11.48071
G1 X106.792 Y88.664 E11.54769
G1 X106.899 Y88.682 E11.55186
G1 X107.753 Y88.575 E11.58493
G1 X108.641 Y88.501 E11.61916
G1 X109.104 Y88.476 E11.63697
G1 X110 Y88.458 E11.6714
G1 X110.897 Y88.476 E11.70586
G1 X111.36 Y88.501 E11.72367
G1 X112.253 Y88.576 E11.7581
G1 X112.698 Y88.627 E11.77531
G1 X113.595 Y88.761 E11.81015
G1 X114.012 Y88.836 E11.82642
G1 X114.917 Y89.027 E11.86196
G1 X115.799 Y89.253 E11.89693
G1 X116.662 Y89.513 E11.93156
G1 X117.966 Y89.966 E11.98459
G1 X118.026 Y90.014 E11.98754
G1 X118.353 Y90.144 E12.00106
G1 X119.179 Y90.511 E12.03578
G1 X119.985 Y90.912 E12.07036
G1 X120.766 Y91.341 E12.10459
G1 X121.548 Y91.815 E12.13972
G1 X122.293 Y92.31 E12.17408
G1 X123.025 Y92.841 E12.20882
G1 X123.381 Y93.116 E12.2261
G1 X124.074 Y93.688 E12.26062
G1 X124.389 Y93.974 E12.27697
G1 X124.567 Y93.958 E12.28383
G1 X124.71 Y93.841 E12.29093
G1 X124.71 Y85.454 E12.61312
G1 X124.576 Y85.29 E12.62126
G1 X115.478 Y85.29 E12.97076
G1 X115.086 Y85.449 E12.98701
G1 X104.914 Y85.449 E13.37777
G1 X104.522 Y85.29 E13.39402
G1 X95.454 Y85.29 E13.74238
G1 X95.29 Y85.424 E13.75051
G1 X95.29 Y93.829 E14.07339
G1 X95.42 Y93.95 E14.08022
G1 X95.603 Y93.979 E14.08733
G1 X95.919 Y93.695 E14.10365
G1 X96.613 Y93.122 E14.13823
G1 X96.976 Y92.841 E14.15586
G1 X97.711 Y92.307 E14.19076
G1 X98.453 Y91.813 E14.22501
;;retract move;;
G1 F3840 X99.223 Y91.346 E13.84501
G1 X100.024 Y90.907 E13.46501
G1 X100.191 Y90.824 E13.08501
G1 F1800 E13.02501
G0 F4800 X98.042 Y88.454 Z0.6
G0 X94.05 Y84.052
G0 X94.503 Y84.264
G1 F600 Z0.2
G1 F1800 E14.22501
G1 F1500 X94.251 Y84.52 E14.23881
G1 X94.062 Y84.825 E14.25259
G1 X93.944 Y85.164 E14.26638
G1 X93.904 Y85.521 E14.28018
G1 X93.904 Y93.904 E14.60222
G1 X85.521 Y93.904 E14.92425
G1 X85.144 Y93.949 E14.93884
G1 X84.806 Y94.071 E14.95264
G1 X84.503 Y94.264 E14.96644
G1 X84.251 Y94.52 E14.98024
G1 X84.062 Y94.825 E14.99403
G1 X83.944 Y95.164 E15.00782
G1 X83.904 Y95.521 E15.02162
G1 X83.904 Y104.477 E15.36567
G1 X83.925 Y104.739 E15.37576
G1 X84.063 Y105.226 E15.39521
G1 X84.063 Y114.788 E15.76254
G1 X83.944 Y115.166 E15.77776
G1 X83.904 Y115.523 E15.79156
G1 X83.904 Y124.479 E16.13561
G1 X83.949 Y124.856 E16.15019
G1 X84.071 Y125.194 E16.164
G1 X84.264 Y125.497 E16.1778
G1 X84.52 Y125.749 E16.1916
G1 X84.825 Y125.938 E16.20538
G1 X85.164 Y126.056 E16.21917
G1 X85.521 Y126.096 E16.23297
G1 X93.904 Y126.096 E16.55501
G1 X93.904 Y134.479 E16.87705
G1 X93.949 Y134.856 E16.89163
G1 X94.071 Y135.194 E16.90544
G1 X94.264 Y135.497 E16.91924
G1 X94.52 Y135.749 E16.93304
G1 X94.825 Y135.938 E16.94682
G1 X95.164 Y136.056 E16.96061
G1 X95.521 Y136.096 E16.97441
G1 X104.477 Y136.096 E17.31846
G1 X104.739 Y136.075 E17.32855
G1 X105.226 Y135.937 E17.348
G1 X114.788 Y135.937 E17.71533
G1 X115.166 Y136.056 E17.73055
G1 X115.523 Y136.096 E17.74435
G1 X124.479 Y136.096 E18.0884
G1 X124.856 Y136.051 E18.10299
G1 X125.194 Y135.929 E18.11679
G1 X125.497 Y135.736 E18.13059
G1 X125.749 Y135.48 E18.14439
G1 X125.938 Y135.175 E18.15817
G1 X126.056 Y134.836 E18.17196
G1 X126.096 Y134.479 E18.18576
G1 X126.096 Y126.096 E18.5078
G1 X134.479 Y126.096 E18.82984
G1 X134.856 Y126.051 E18.84442
G1 X135.194 Y125.929 E18.85823
G1 X135.497 Y125.736 E18.87203
G1 X135.749 Y125.48 E18.88583
G1 X135.938 Y125.175 E18.89961
G1 X136.056 Y124.836 E18.9134
G1 X136.096 Y124.479 E18.9272
G1 X136.096 Y115.523 E19.27125
G1 X136.075 Y115.261 E19.28135
G1 X135.937 Y114.774 E19.30079
G1 X135.937 Y105.212 E19.66812
G1 X136.056 Y104.834 E19.68334
G1 X136.096 Y104.477 E19.69714
G1 X136.096 Y95.521 E20.04119
G1 X136.051 Y95.144 E20.05578
G1 X135.929 Y94.806 E20.06958
G1 X135.736 Y94.503 E20.08338
G1 X135.48 Y94.251 E20.09718
G1 X135.175 Y94.062 E20.11097
G1 X134.836 Y93.944 E20.12476
G1 X134.479 Y93.904 E20.13856
G1 X126.096 Y93.904 E20.46059
G1 X126.096 Y85.521 E20.78263
G1 X126.051 Y85.144 E20.79722
G1 X125.929 Y84.806 E20.81102
G1 X125.736 Y84.503 E20.82482
G1 X125.48 Y84.251 E20.83862
G1 X125.175 Y84.062 E20.8524
G1 X124.836 Y83.944 E20.86619
G1 X124.479 Y83.904 E20.87999
G1 X115.523 Y83.904 E21.22404
G1 X115.261 Y83.925 E21.23414
G1 X114.774 Y84.063 E21.25358
G1 X105.212 Y84.063 E21.62091
G1 X104.834 Y83.944 E21.63614
G1 X104.477 Y83.904 E21.64994
G1 X95.521 Y83.904 E21.99399
G1 X95.144 Y83.949 E22.00857
G1 X94.806 Y84.071 E22.02238
